Newaita-dark/.places-ubuntu/32/user-desktop.svg

<?xml version="1.0" encoding="UTF-8"?>
<svg xmlns="http://www.w3.org/2000/svg" xmlns:xlink="http://www.w3.org/1999/xlink" width="32pt" height="32pt" viewBox="0 0 32 32" version="1.1">
<defs>
<linearGradient id="linear0" gradientUnits="userSpaceOnUse" x1="254" y1="233.5" x2="254" y2="254.666672" gradientTransform="matrix(0.062506,0,0,0.062506,-0.00000381506,13.438783)">
<stop offset="0" style="stop-color:rgb(0%,0%,0%);stop-opacity:0.27451;"/>
<stop offset="1" style="stop-color:rgb(0%,0%,0%);stop-opacity:0;"/>
</linearGradient>
<radialGradient id="radial0" gradientUnits="userSpaceOnUse" cx="450.908936" cy="189.579361" fx="450.908936" fy="189.579361" r="21.166656" gradientTransform="matrix(0.00000017417,-0.0781325,-0.140638,-0.000000101539,53.453691,63.595331)">
<stop offset="0" style="stop-color:rgb(0%,0%,0%);stop-opacity:0.313725;"/>
<stop offset="0.222222" style="stop-color:rgb(0%,0%,0%);stop-opacity:0.27451;"/>
<stop offset="1" style="stop-color:rgb(0%,0%,0%);stop-opacity:0;"/>
</radialGradient>
<radialGradient id="radial1" gradientUnits="userSpaceOnUse" cx="450.908936" cy="189.579361" fx="450.908936" fy="189.579361" r="21.166656" gradientTransform="matrix(-0.00000017417,0.0781325,0.140638,0.000000101539,-21.700661,-7.527481)">
<stop offset="0" style="stop-color:rgb(0%,0%,0%);stop-opacity:0.313725;"/>
<stop offset="0.222222" style="stop-color:rgb(0%,0%,0%);stop-opacity:0.27451;"/>
<stop offset="1" style="stop-color:rgb(0%,0%,0%);stop-opacity:0;"/>
</radialGradient>
<radialGradient id="radial2" gradientUnits="userSpaceOnUse" cx="450.908936" cy="189.579361" fx="450.908936" fy="189.579361" r="21.166656" gradientTransform="matrix(-0.00000017417,-0.0781325,0.140638,-0.000000101539,-21.700661,63.595331)">
<stop offset="0" style="stop-color:rgb(0%,0%,0%);stop-opacity:0.313725;"/>
<stop offset="0.222222" style="stop-color:rgb(0%,0%,0%);stop-opacity:0.27451;"/>
<stop offset="1" style="stop-color:rgb(0%,0%,0%);stop-opacity:0;"/>
</radialGradient>
<radialGradient id="radial3" gradientUnits="userSpaceOnUse" cx="450.908936" cy="189.579361" fx="450.908936" fy="189.579361" r="21.166656" gradientTransform="matrix(0.00000017417,0.0781325,-0.140638,0.000000101539,53.453689,-7.527481)">
<stop offset="0" style="stop-color:rgb(0%,0%,0%);stop-opacity:0.313725;"/>
<stop offset="0.222222" style="stop-color:rgb(0%,0%,0%);stop-opacity:0.27451;"/>
<stop offset="1" style="stop-color:rgb(0%,0%,0%);stop-opacity:0;"/>
</radialGradient>
<linearGradient id="linear1" gradientUnits="userSpaceOnUse" x1="254" y1="233.5" x2="254" y2="-147.5" gradientTransform="matrix(0.062506,0,0,0.062506,0,13.438783)">
<stop offset="0" style="stop-color:rgb(38.039216%,38.039216%,38.039216%);stop-opacity:1;"/>
<stop offset="1" style="stop-color:rgb(45.882353%,45.882353%,45.882353%);stop-opacity:1;"/>
</linearGradient>
<linearGradient id="linear2" gradientUnits="userSpaceOnUse" x1="880.000061" y1="254.291016" x2="880.000061" y2="1694.291138" gradientTransform="matrix(0.016538,0,0,0.016538,0,0.0136789)">
<stop offset="0" style="stop-color:rgb(100%,54.117647%,39.607843%);stop-opacity:1;"/>
<stop offset="1" style="stop-color:rgb(100%,43.921569%,26.27451%);stop-opacity:1;"/>
</linearGradient>
<linearGradient id="linear3" gradientUnits="userSpaceOnUse" x1="444.5" y1="185.875" x2="444.5" y2="148.833328" gradientTransform="matrix(0.5,0,0,0.571428,-105.833473,106.337929)">
<stop offset="0" style="stop-color:rgb(40.392157%,22.745098%,71.764706%);stop-opacity:1;"/>
<stop offset="1" style="stop-color:rgb(49.411765%,34.117647%,76.078431%);stop-opacity:1;"/>
</linearGradient>
<linearGradient id="linear4" gradientUnits="userSpaceOnUse" x1="444.5" y1="185.875" x2="444.5" y2="148.833328" gradientTransform="matrix(0.5,0,0,0.571428,-21.166807,106.119087)">
<stop offset="0" style="stop-color:rgb(40.392157%,22.745098%,71.764706%);stop-opacity:1;"/>
<stop offset="1" style="stop-color:rgb(49.411765%,34.117647%,76.078431%);stop-opacity:1;"/>
</linearGradient>
<linearGradient id="linear5" gradientUnits="userSpaceOnUse" x1="444.5" y1="185.875" x2="444.5" y2="148.833328" gradientTransform="matrix(0.5,0,0,0.571428,169.333206,106.337929)">
<stop offset="0" style="stop-color:rgb(40.392157%,22.745098%,71.764706%);stop-opacity:1;"/>
<stop offset="1" style="stop-color:rgb(49.411765%,34.117647%,76.078431%);stop-opacity:1;"/>
</linearGradient>
</defs>
<g id="surface1">
<path style=" stroke:none;fill-rule:nonzero;fill:url(#linear0);" d="M 4.628906 28.035156 L 27.121094 28.035156 L 27.121094 29.355469 L 4.628906 29.355469 Z M 4.628906 28.035156 "/>
<path style=" stroke:none;fill-rule:nonzero;fill:url(#radial0);" d="M 27.121094 28.035156 L 29.769531 28.035156 L 29.769531 26.710938 L 27.121094 26.710938 Z M 27.121094 28.035156 "/>
<path style=" stroke:none;fill-rule:nonzero;fill:url(#radial1);" d="M 4.628906 28.035156 L 1.984375 28.035156 L 1.984375 29.355469 L 4.628906 29.355469 Z M 4.628906 28.035156 "/>
<path style=" stroke:none;fill-rule:nonzero;fill:url(#radial2);" d="M 4.628906 28.035156 L 1.984375 28.035156 L 1.984375 26.710938 L 4.628906 26.710938 Z M 4.628906 28.035156 "/>
<path style=" stroke:none;fill-rule:nonzero;fill:url(#radial3);" d="M 27.121094 28.035156 L 29.769531 28.035156 L 29.769531 29.355469 L 27.121094 29.355469 Z M 27.121094 28.035156 "/>
<path style=" stroke:none;fill-rule:nonzero;fill:url(#linear1);" d="M 3.191406 4.261719 L 28.558594 4.261719 C 29.226562 4.261719 29.769531 4.820312 29.769531 5.511719 L 29.769531 26.742188 C 29.769531 27.433594 29.226562 27.992188 28.558594 27.992188 L 3.191406 27.992188 C 2.523438 27.992188 1.984375 27.433594 1.984375 26.742188 L 1.984375 5.511719 C 1.984375 4.820312 2.523438 4.261719 3.191406 4.261719 Z M 3.191406 4.261719 "/>
<path style=" stroke:none;fill-rule:nonzero;fill:rgb(0%,0%,0%);fill-opacity:0.235294;" d="M 3.308594 28.046875 C 2.574219 28.046875 1.984375 27.457031 1.984375 26.722656 L 1.984375 26.378906 C 1.984375 27.113281 2.574219 27.703125 3.308594 27.703125 L 28.445312 27.703125 C 29.179688 27.703125 29.769531 27.113281 29.769531 26.378906 L 29.769531 26.722656 C 29.769531 27.457031 29.179688 28.046875 28.445312 28.046875 Z M 3.308594 28.046875 "/>
<path style=" stroke:none;fill-rule:nonzero;fill:url(#linear2);" d="M 6.613281 24.078125 C 5.882812 24.078125 5.292969 24.667969 5.292969 25.402344 L 5.292969 27.386719 C 5.292969 27.753906 5.585938 28.046875 5.953125 28.046875 L 25.800781 28.046875 C 26.164062 28.046875 26.460938 27.753906 26.460938 27.386719 L 26.460938 25.402344 C 26.460938 24.667969 25.871094 24.078125 25.136719 24.078125 Z M 6.613281 24.078125 "/>
<path style="fill-rule:nonzero;fill:url(#linear3);stroke-width:3;stroke-linecap:round;stroke-linejoin:miter;stroke:rgb(12.941177%,12.941177%,12.941177%);stroke-opacity:1;stroke-miterlimit:4;" d="M 116.426382 191.398691 C 122.238327 191.398691 126.987873 196.148237 126.987873 201.960182 C 126.987873 207.834621 122.238327 212.521674 116.426382 212.521674 C 110.551943 212.521674 105.802396 207.834621 105.802396 201.960182 C 105.802396 196.148237 110.551943 191.398691 116.426382 191.398691 Z M 116.426382 191.398691 " transform="matrix(0.062506,0,0,0.062506,0,13.438783)"/>
<path style="fill-rule:nonzero;fill:rgb(44.901961%,28.431373%,73.921569%);fill-opacity:1;stroke-width:3;stroke-linecap:round;stroke-linejoin:miter;stroke:rgb(12.941177%,12.941177%,12.941177%);stroke-opacity:1;stroke-miterlimit:4;" d="M 158.734842 191.398691 C 164.609281 191.398691 169.358827 196.148237 169.358827 201.960182 C 169.358827 207.834621 164.609281 212.521674 158.734842 212.521674 C 152.922897 212.521674 148.17335 207.834621 148.17335 201.960182 C 148.17335 196.148237 152.922897 191.398691 158.734842 191.398691 Z M 158.734842 191.398691 " transform="matrix(0.062506,0,0,0.062506,0,13.438783)"/>
<path style="fill-rule:nonzero;fill:url(#linear4);stroke-width:3;stroke-linecap:round;stroke-linejoin:miter;stroke:rgb(12.941177%,12.941177%,12.941177%);stroke-opacity:1;stroke-miterlimit:4;" d="M 201.105795 191.148715 C 206.91774 191.148715 211.667287 195.898261 211.667287 201.7727 C 211.667287 207.584645 206.91774 212.334192 201.105795 212.334192 C 195.231356 212.334192 190.48181 207.584645 190.48181 201.7727 C 190.48181 195.898261 195.231356 191.148715 201.105795 191.148715 Z M 201.105795 191.148715 " transform="matrix(0.062506,0,0,0.062506,0,13.438783)"/>
<path style="fill-rule:nonzero;fill:url(#linear5);stroke-width:3;stroke-linecap:round;stroke-linejoin:miter;stroke:rgb(12.941177%,12.941177%,12.941177%);stroke-opacity:1;stroke-miterlimit:4;" d="M 391.587605 191.398691 C 397.39955 191.398691 402.149097 196.148237 402.149097 201.960182 C 402.149097 207.834621 397.39955 212.521674 391.587605 212.521674 C 385.713166 212.521674 381.026114 207.834621 381.026114 201.960182 C 381.026114 196.148237 385.713166 191.398691 391.587605 191.398691 Z M 391.587605 191.398691 " transform="matrix(0.062506,0,0,0.062506,0,13.438783)"/>
<path style=" stroke:none;fill-rule:nonzero;fill:rgb(100%,100%,100%);fill-opacity:0.392157;" d="M 6.613281 24.078125 C 5.882812 24.078125 5.292969 24.667969 5.292969 25.402344 L 5.292969 25.71875 C 5.292969 24.984375 5.882812 24.394531 6.613281 24.394531 L 25.136719 24.394531 C 25.871094 24.394531 26.460938 24.984375 26.460938 25.71875 L 26.460938 25.402344 C 26.460938 24.667969 25.871094 24.078125 25.136719 24.078125 Z M 6.613281 24.078125 "/>
<path style=" stroke:none;fill-rule:nonzero;fill:rgb(0%,0%,0%);fill-opacity:0.235294;" d="M 5.292969 27.054688 L 5.292969 27.386719 C 5.292969 27.753906 5.585938 28.046875 5.953125 28.046875 L 25.800781 28.046875 C 26.164062 28.046875 26.460938 27.753906 26.460938 27.386719 L 26.460938 27.054688 C 26.460938 27.421875 26.164062 27.71875 25.800781 27.71875 L 5.953125 27.71875 C 5.585938 27.71875 5.292969 27.421875 5.292969 27.054688 Z M 5.292969 27.054688 "/>
<path style=" stroke:none;fill-rule:nonzero;fill:rgb(12.941177%,12.941177%,12.941177%);fill-opacity:1;" d="M 6.613281 23.984375 C 5.832031 23.984375 5.199219 24.617188 5.199219 25.402344 L 5.199219 27.386719 C 5.199219 27.804688 5.535156 28.140625 5.953125 28.140625 L 25.800781 28.140625 C 26.214844 28.140625 26.554688 27.804688 26.554688 27.386719 L 26.554688 25.402344 C 26.554688 24.617188 25.921875 23.984375 25.136719 23.984375 Z M 6.613281 24.171875 L 25.136719 24.171875 C 25.820312 24.171875 26.367188 24.71875 26.367188 25.402344 L 26.367188 27.386719 C 26.367188 27.703125 26.117188 27.953125 25.800781 27.953125 L 5.953125 27.953125 C 5.636719 27.953125 5.386719 27.703125 5.386719 27.386719 L 5.386719 25.402344 C 5.386719 24.71875 5.933594 24.171875 6.613281 24.171875 Z M 6.613281 24.171875 "/>
<path style=" stroke:none;fill-rule:nonzero;fill:rgb(100%,100%,100%);fill-opacity:0.392157;" d="M 3.308594 4.296875 C 2.574219 4.296875 1.984375 4.886719 1.984375 5.617188 L 1.984375 5.960938 C 1.984375 5.230469 2.574219 4.640625 3.308594 4.640625 L 28.445312 4.640625 C 29.179688 4.640625 29.769531 5.230469 29.769531 5.960938 L 29.769531 5.617188 C 29.769531 4.886719 29.179688 4.296875 28.445312 4.296875 Z M 3.308594 4.296875 "/>
<path style=" stroke:none;fill-rule:nonzero;fill:rgb(12.941177%,12.941177%,12.941177%);fill-opacity:1;" d="M 3.308594 4.125 C 2.523438 4.125 1.890625 4.757812 1.890625 5.542969 L 1.890625 26.710938 C 1.890625 27.496094 2.523438 28.128906 3.308594 28.128906 L 28.445312 28.128906 C 29.230469 28.128906 29.863281 27.496094 29.863281 26.710938 L 29.863281 5.542969 C 29.863281 4.757812 29.230469 4.125 28.445312 4.125 Z M 3.308594 4.3125 L 28.445312 4.3125 C 29.128906 4.3125 29.675781 4.859375 29.675781 5.542969 L 29.675781 26.710938 C 29.675781 27.394531 29.128906 27.941406 28.445312 27.941406 L 3.308594 27.941406 C 2.625 27.941406 2.078125 27.394531 2.078125 26.710938 L 2.078125 5.542969 C 2.078125 4.859375 2.625 4.3125 3.308594 4.3125 Z M 3.308594 4.3125 "/>
</g>
</svg>

<svg xmlns="http://www.w3.org/2000/svg" width="32pt" height="32pt" viewBox="0 0 32 32"><defs><linearGradient id="a" gradientUnits="userSpaceOnUse" x1="254" y1="233.5" x2="254" y2="254.667" gradientTransform="matrix(.0625 0 0 .0625 0 13.439)"><stop offset="0" stop-opacity=".275"/><stop offset="1" stop-opacity="0"/></linearGradient><radialGradient id="b" gradientUnits="userSpaceOnUse" cx="450.909" cy="189.579" fx="450.909" fy="189.579" r="21.167" gradientTransform="matrix(0 -.07813 -.14064 0 53.454 63.595)"><stop offset="0" stop-opacity=".314"/><stop offset=".222" stop-opacity=".275"/><stop offset="1" stop-opacity="0"/></radialGradient><radialGradient id="c" gradientUnits="userSpaceOnUse" cx="450.909" cy="189.579" fx="450.909" fy="189.579" r="21.167" gradientTransform="matrix(0 .07813 .14064 0 -21.7 -7.527)"><stop offset="0" stop-opacity=".314"/><stop offset=".222" stop-opacity=".275"/><stop offset="1" stop-opacity="0"/></radialGradient><radialGradient id="d" gradientUnits="userSpaceOnUse" cx="450.909" cy="189.579" fx="450.909" fy="189.579" r="21.167" gradientTransform="matrix(0 -.07813 .14064 0 -21.7 63.595)"><stop offset="0" stop-opacity=".314"/><stop offset=".222" stop-opacity=".275"/><stop offset="1" stop-opacity="0"/></radialGradient><radialGradient id="e" gradientUnits="userSpaceOnUse" cx="450.909" cy="189.579" fx="450.909" fy="189.579" r="21.167" gradientTransform="matrix(0 .07813 -.14064 0 53.454 -7.527)"><stop offset="0" stop-opacity=".314"/><stop offset=".222" stop-opacity=".275"/><stop offset="1" stop-opacity="0"/></radialGradient><linearGradient id="f" gradientUnits="userSpaceOnUse" x1="254" y1="233.5" x2="254" y2="-147.5" gradientTransform="matrix(.0625 0 0 .0625 0 13.439)"><stop offset="0" stop-color="#616161"/><stop offset="1" stop-color="#757575"/></linearGradient><linearGradient id="g" gradientUnits="userSpaceOnUse" x1="880" y1="254.291" x2="880" y2="1694.291" gradientTransform="matrix(.01654 0 0 .01654 0 .014)"><stop offset="0" stop-color="#ff8a65"/><stop offset="1" stop-color="#ff7043"/></linearGradient><linearGradient id="h" gradientUnits="userSpaceOnUse" x1="444.5" y1="185.875" x2="444.5" y2="148.833" gradientTransform="matrix(.5 0 0 .57143 -105.833 106.338)"><stop offset="0" stop-color="#673ab7"/><stop offset="1" stop-color="#7e57c2"/></linearGradient><linearGradient id="i" gradientUnits="userSpaceOnUse" x1="444.5" y1="185.875" x2="444.5" y2="148.833" gradientTransform="matrix(.5 0 0 .57143 -21.167 106.12)"><stop offset="0" stop-color="#673ab7"/><stop offset="1" stop-color="#7e57c2"/></linearGradient><linearGradient id="j" gradientUnits="userSpaceOnUse" x1="444.5" y1="185.875" x2="444.5" y2="148.833" gradientTransform="matrix(.5 0 0 .57143 169.333 106.338)"><stop offset="0" stop-color="#673ab7"/><stop offset="1" stop-color="#7e57c2"/></linearGradient></defs><path d="M4.629 28.035H27.12v1.32H4.63zm0 0" fill="url(#a)"/><path d="M27.121 28.035h2.649v-1.324H27.12zm0 0" fill="url(#b)"/><path d="M4.629 28.035H1.984v1.32H4.63zm0 0" fill="url(#c)"/><path d="M4.629 28.035H1.984v-1.324H4.63zm0 0" fill="url(#d)"/><path d="M27.121 28.035h2.649v1.32H27.12zm0 0" fill="url(#e)"/><path d="M3.191 4.262H28.56c.668 0 1.21.558 1.21 1.25v21.23c0 .692-.542 1.25-1.21 1.25H3.19c-.668 0-1.207-.558-1.207-1.25V5.512c0-.692.54-1.25 1.207-1.25zm0 0" fill="url(#f)"/><path d="M3.309 28.047a1.32 1.32 0 0 1-1.325-1.324v-.344c0 .734.59 1.324 1.325 1.324h25.136a1.32 1.32 0 0 0 1.325-1.324v.344a1.32 1.32 0 0 1-1.325 1.324zm0 0" fill-opacity=".235"/><path d="M6.613 24.078c-.73 0-1.32.59-1.32 1.324v1.985c0 .367.293.66.66.66h19.848a.66.66 0 0 0 .66-.66v-1.985a1.32 1.32 0 0 0-1.324-1.324zm0 0" fill="url(#g)"/><path d="M116.426 191.399c5.812 0 10.562 4.75 10.562 10.561 0 5.875-4.75 10.562-10.562 10.562-5.874 0-10.624-4.687-10.624-10.562 0-5.812 4.75-10.561 10.624-10.561zm0 0" transform="matrix(.0625 0 0 .0625 0 13.439)" fill="url(#h)" stroke-width="3" stroke-linecap="round" stroke="#212121"/><path d="M9.922 25.402a.66.66 0 0 1 0 1.32.66.66 0 1 1 0-1.32zm0 0" fill="#7349bd" stroke-width=".18752999999999997" stroke-linecap="round" stroke="#212121"/><path d="M201.106 191.149c5.812 0 10.561 4.75 10.561 10.624 0 5.812-4.75 10.561-10.561 10.561-5.875 0-10.624-4.75-10.624-10.561 0-5.875 4.75-10.624 10.624-10.624zm0 0" transform="matrix(.0625 0 0 .0625 0 13.439)" fill="url(#i)" stroke-width="3" stroke-linecap="round" stroke="#212121"/><path d="M391.588 191.399c5.812 0 10.561 4.75 10.561 10.561 0 5.875-4.75 10.562-10.561 10.562a10.509 10.509 0 0 1-10.562-10.562c0-5.812 4.687-10.561 10.562-10.561zm0 0" transform="matrix(.0625 0 0 .0625 0 13.439)" fill="url(#j)" stroke-width="3" stroke-linecap="round" stroke="#212121"/><path d="M6.613 24.078c-.73 0-1.32.59-1.32 1.324v.317c0-.735.59-1.324 1.32-1.324h18.524c.734 0 1.324.59 1.324 1.324v-.317a1.32 1.32 0 0 0-1.324-1.324zm0 0" fill="#fff" fill-opacity=".392"/><path d="M5.293 27.055v.332c0 .367.293.66.66.66h19.848a.66.66 0 0 0 .66-.66v-.332a.663.663 0 0 1-.66.664H5.953a.66.66 0 0 1-.66-.664zm0 0" fill-opacity=".235"/><path d="M6.613 23.984c-.781 0-1.414.633-1.414 1.418v1.985c0 .418.336.754.754.754h19.848a.754.754 0 0 0 .754-.754v-1.985c0-.785-.633-1.418-1.418-1.418zm0 .188h18.524c.683 0 1.23.547 1.23 1.23v1.985c0 .316-.25.566-.566.566H5.953a.562.562 0 0 1-.566-.566v-1.985c0-.683.547-1.23 1.226-1.23zm0 0" fill="#212121"/><path d="M3.309 4.297a1.32 1.32 0 0 0-1.325 1.32v.344c0-.73.59-1.32 1.325-1.32h25.136c.735 0 1.325.59 1.325 1.32v-.344c0-.73-.59-1.32-1.325-1.32zm0 0" fill="#fff" fill-opacity=".392"/><path d="M3.309 4.125c-.786 0-1.418.633-1.418 1.418v21.168c0 .785.632 1.418 1.418 1.418h25.136c.785 0 1.418-.633 1.418-1.418V5.543c0-.785-.633-1.418-1.418-1.418zm0 .188h25.136c.684 0 1.23.546 1.23 1.23v21.168c0 .684-.546 1.23-1.23 1.23H3.31c-.684 0-1.23-.546-1.23-1.23V5.543c0-.684.546-1.23 1.23-1.23zm0 0" fill="#212121"/></svg>
